X:1
T:Woodstock
T:G Major        Hezekiah Moors, 1809
T:Treble-Tenor-Bass Transcribed from Province Harmony , 1809; Counter by B. C. Johnston, 2018.
T:Charles Wesley, 1742 (Isaiah 32:2)                76.76.78.76.
%%score [ 1 2 3 4 ]
L:1/8
Q:1/4=80
M:2/4
K:G
V:1 treble nm="Tr." snm="Tr."
V:2 treble nm="C." snm="C."
V:3 treble-8 nm="T." snm="T."
V:4 bass nm="B." snm="B."
V:1
"_1. To  the haven    of  thy breast, O  Son of man,  I   fly:                 Be   my  refuge   and  my rest,  For  O! the storm is high: Save me from the\n2. Welcome as the water spring  To  a  dry barren place,                O descend on me, and bring Thy sweet refreshing grace:  O'er a parched and" d g B B | %1
 e e d d | d B G B | d4 | d g B B | c A G G | A B G d | B4 |: B G c A | %9
"_1. furious blast, A    covert   from   the    tempest   be,       Hide me,  Jesus,    till  o’er-past  The  storm of    sin    I     see.\n2.wea–ry  land  As   a   great rock   ex – tends  its shade,   Hide me,  Savior, with thy hand, And  screen  my naked head." B B B B | %10
 B G c A | B A A2 | B G c A | B B G B | d g d d | d4 :| %16
V:2
"_3. In  the  time  of my distress  Thou hast my succor been,              In  my  utter    helplessness  Restraining  me  from  sin;      O  how  swiftly\n4. First and last in me perform  The work thou hast begun,             Be my shelter from the storm,  My shadow from the sun;   Sprinkle still the" G B B B | %1
 c c d d | B B G B | (B A3) | G B B B | c c G G | A B c A | G4 |: G G c A | %9
"_3. didst thou move To  save  me  in  the   trying   hour!    Still  protect    me  with thy love, And  shield  me  with  thy power.\n4. mer – cy-seat, And  bring  thy Father’s  anger down,    Screen me,  Jesus, from the heat  And   ter  –  ror    of    his  frown." B G B G | %10
 G G c A | B ^c d2 | B G c d | d B B B | A/B/ c/A/ B A | G4 :| %16
V:3
"_5. Let  thy merit    as  a  cloud   Still  interpose  be  –  tween,       \nPlead th’atonement of thy  blood  Till      I  am cleansed from sin:    Weary. parched with\n6. Never  shall  I  want  it  less  When thou the gift hast given,     Filled me with thy righteousness, And sealed the heir of heaven;    I   shall   hang  up –" B B G G | %1
 c c A A | B B G G | (A/G/A/B/ A2) | B B G G | c c c d/e/ | d B c A | G4 |: g e e d | %9
"_5. thirst and faint Till  thou  th'a–bi–ding  Spirit  breathe,   Every   moment,  Lord,  I want  The  me  –  rit   of    thy   death.\n6. –on  my  God,  Till   I   thy  per–fect   glo  – ry  see,       Till the sprinkling  of thy blood  Shall  speak  me  up   to    thee." d B B G | %10
 g e e d | d ^c d2 | g e e d | d B B G | A/B/ c/A/ B A | G4 :| %16
V:4
 G, G, E, E, | C, C, D, D, | G, G, E, E, | (E, D,3) | G, G, E, E, | C, C, C, B,,/C,/ | %6
 D, G, C, D, | G,,4 |: G, C, C, D, | G, G, G, G, | G, C, C, D, | %11
"_______________________________________________________\nEdited by B. C. Johnston, 2018\n   1. Grace eighth note converted to normal eighth note in measure 4.\n   2. Counter part written." G, A, D,2 | %12
 G, C, C, D, | G, G, G, E, | D, E, G, D, | G,,4 :| %16

